_includes/icons/color-course.svg

<svg fill="#666" height="50" viewBox="0 0 48 48" width="50" xmlns="http://www.w3.org/2000/svg"><path d="m6 6h11v36h-11z" fill="#2e7d32"/><path d="m31 6h11v36h-11z" fill="#1565c0"/><path d="m19 11h10v31h-10z" fill="#ffc107"/><g fill="#7cb342"><path d="m6 12h11v2h-11z"/><path d="m6 34h11v2h-11z"/><path d="m10 17h3v14h-3z"/></g><g fill="#64b5f6"><path d="m31 12h11v2h-11z"/><path d="m31 34h11v2h-11z"/><path d="m35 17h3v14h-3z"/></g><path d="m19 15h10v2h-10z" fill="#ff8f00"/><path d="m19 36h10v2h-10z" fill="#ff8f00"/><path d="m23 20h2v13h-2z" fill="#ff8f00"/></svg>

<svg xmlns="http://www.w3.org/2000/svg" viewBox="0 0 48 48" width="50" height="50" fill="#666"><path d="M 6 6 L 17 6 L 17 42 L 6 42 Z" fill="#2e7d32"/><path d="M 31 6 L 42 6 L 42 42 L 31 42 Z" fill="#1565c0"/><path d="M 19 11 L 29 11 L 29 42 L 19 42 Z" fill="#ffc107"/><path d="M 6 12 L 17 12 L 17 14 L 6 14 Z" fill="#7cb342"/><path d="M 6 34 L 17 34 L 17 36 L 6 36 Z" fill="#7cb342"/><path d="M 10 17 L 13 17 L 13 31 L 10 31 Z" fill="#7cb342"/><path d="M 31 12 L 42 12 L 42 14 L 31 14 Z" fill="#64b5f6"/><path d="M 31 34 L 42 34 L 42 36 L 31 36 Z" fill="#64b5f6"/><path d="M 35 17 L 38 17 L 38 31 L 35 31 Z" fill="#64b5f6"/><path d="M 19 15 L 29 15 L 29 17 L 19 17 Z" fill="#ff8f00"/><path d="M 19 36 L 29 36 L 29 38 L 19 38 Z" fill="#ff8f00"/><path d="M 23 20 L 25 20 L 25 33 L 23 33 Z" fill="#ff8f00"/></svg>
